X: 10750
T: Dr. Gilbert's
R: reel
M: 4/4
K: Eminor
g.f|:.e.B{c}BA ~B3c|{e}dBA=c BAGF|~E3.F {A}G.E Fd|{g}.edBe dBAB|
D.E{A}E D~-E3.F|(3.G.F.E FD E.F.GA|(3B.c.d ed Bdgb|a.fd.f ef{a}gf:|
|:eB~B2 fg{a}gB|d2(3e.f.g afd.f|~g2 b.g fa{b}af|e{a}gfd ed{c}Bd|
{g}a.fd.f edBc|(3dcB AF {B}AF{A}DE|FA=cA (3Bcd gb|1 afd.f ef{a}gf:|2 afdf ~e3f:|

